X: 5637
T: Butterfly, The
R: slip jig
M: 9/8
K: Eminor
|:B2E G2E F3|B2E G2E FGA|B2E G2E F3|B2c d2B AFD:|
|:B2d e2f g3|B2d g2e dBA|B2d e2f g2a|b2a g2e dBA:|
|:B3 B2A G2A|B3 BAB dBA|B3 B2A G2A|B2d g2e dBA:|

